X:1
T:Title
%%score ( 1 2 ) 3
L:1/8
M:6/8
K:Eb
V:1 treble nm="Grand Piano, Unnamed-000"
V:2 treble 
V:3 bass nm="Choir Pad, Unnamed-001"
V:1
 E2 [DF] [EG]2 [EG] | .A3 z3 | [EG]2 [EG] F3 | [B,E]2 [=A,E] [B,D]3 | z3 .B3 | [Ec]3 [DB]3 | %6
w: By~Frederick~Charles~Maker,~1881 * * *||||||
 [Ge]2 [Ge] [Ge]2 [EG] | [DF][EG][FA] [EG]2 [DF] | [EG]2 [EG] [DA]3 | [EB]2 [EB] [Ec]3 | z3 .c3 | %11
w: |||||
 [Fd]3 [Ge]3- | [Ge]6 |] %13
w: ||
V:2
 x6 | E-[EB][Ec] [DB]2 [FA] | x6 | x6 | [CF]2 [CF] F-[Fc][Fd] | x6 | x6 | x6 | x6 | x6 | %10
 [EB]2 [EB] A-[Ad][Ge] | x6 | x6 |] %13
V:3
 [E,G,]2 [B,,B,] [E,B,]2 [E,B,] | [C,A,][B,,G,][A,,A,] [B,,F,]2 [B,,B,] | [E,B,]2 [E,B,] [D,B,]3 | %3
 [C,G,]2 [C,F,] [B,,F,]3 | [F,=A,]2 [E,A,] [D,B,][C,A,][B,,B,] | [F,=A,]3 [B,,B,]3 | %6
 [E,B,]2 [E,B,] [E,B,]2 [G,B,] | B,2 [B,,B,] [E,B,]2 [B,,B,] | [E,B,]2 [E,B,] [F,B,]3 | %9
 [G,B,]2 [G,B,] A,3 | [G,B,]2 [G,B,] [F,B,]2 [E,B,] | [B,,B,]3 [E,B,]3- | [E,B,]6 |] %13

